X:1
T:Title
%%score { ( 1 3 ) | 2 }
L:1/8
M:3/4
K:Eb
V:1 treble nm="Grand Piano"
V:3 treble 
V:2 bass 
V:1
 z2 z[Q:1/4=88] B GE | B,3 B GE | [DB]3 [Fd] [Fc][FB] | [Ge]3 [EGB] [B,EG][G,B,E] | %4
[M:3/8] [B,DF]3 | BGE |[M:3/4] B,3 B GE | [DB]3 [Fd] [Fc][FB] | [Ge]3 [EB] [EAc][EAc] | %9
[M:3/8] [EGB]3 | GAB |[M:3/4] [EG]3 [FA] [DF]G |[M:3/8] E3 | eee |[M:2/4] e4- | e z z2 | c4 | %17
 [GB]G GG | A4 | G2 z B |[M:3/4] c3 c3 |[M:9/16] [GB]4- [GB]/ |] %22
V:2
 z2 z B, G,E, | B,,3 B, G,E, | [B,,F,]3 [B,,B,] [C,=A,][D,B,] | [E,B,]3 E, E,E, |[M:3/8] B,,3 | %5
 B,G,E, |[M:3/4] B,,3 B, G,E, | [B,,F,]3 [B,,B,] [C,=A,][D,B,] | [E,B,]3 G, A,A, |[M:3/8] E,3 | %10
 EFG |[M:3/4][K:bass] E,B, G,B, B,,[B,D] |[M:3/8] [E,G,B,]3 | z3 |[M:2/4] z [E,B,] [E,B,][E,B,] | %15
 .[A,C]2 z2 | z [A,E] [A,E][A,E] | .[E,E]2 z2 | z [B,,B,] [B,,B,][B,,B,] | %19
 [E,B,E]2 z[K:treble] [G,EG] |[M:3/4] [A,EA]3 [A,EA]3 |[M:9/16][K:bass] [E,E]4- [E,E]/ |] %22
V:3
 x6 | x6 | x6 | x6 |[M:3/8] x3 | x3 |[M:3/4] x6 | x6 | x6 |[M:3/8] x3 | x3 |[M:3/4] x6 | %12
[M:3/8] x3 | x3 |[M:2/4] z G GG | Ac cc | z A AA | x4 | z D DD | x4 |[M:3/4] x6 |[M:9/16] x9/2 |] %22

